!!!!SEGMENT: pl-cz--iii-31--007_bolehovsky-josef--litaniae-agnus-dei.krn
!!!cenid: 17xx:834
!!!COM: Bolehovský, Josef
!!!COM-rismID:
!!!CDT: 1743-1811
!!!CNT: Czech
!!!OPR: Litaniae
!!!OTL: Agnus Dei
!!!OMV: 007
!!!PDT:
!!!AGN: Sacred; Mass
!!!SMS-siglum: PL-CZ
!!!SMS-shelfmark: III-31
!!!SMS-shelfwork: 001-007 M
!!!SMS-variant:
!!!SMS-altvar:
!!!NIFC-rismSourceID: 300237604
!!!NIFC-islandoraID: pl-cz:37498
!!!URL-pdf-islandora: https://repozytorium.nifc.pl/islandora/object/pl-cz%3A37498/datastream/PDF/view
!!!URL-scan:
!!!ONB-nifc: UWAGA: części Litanii: Kyrie, Sancta Maria, Virgo prudentissima, Rosa mystica, Salus infirmorum, Regina angelorum, Agnus Dei
!!!AIN: 1 alto 1 bass 2 empty 1 organ 1 tenor 3 violn 1 vox
!!!key:
**kern	**fba	**dynam	**kern	**dynam	**kern	**dynam	**kern	**kern	**text	**kern	**text	**kern	**text	**kern	**text	**kern	**dynam	**kern
*part10	*	*part10	*part9	*part9	*part8	*part8	*part7	*part6	*part6	*part5	*part5	*part4	*part4	*part3	*part3	*part2	*part2	*part1
*staff10	*	*	*staff9	*	*staff8	*	*staff7	*staff6	*staff6	*staff5	*staff5	*staff4	*staff4	*staff3	*staff3	*staff2	*	*staff1
*Iorgan	*	*	*Ivioln	*	*Ivioln	*	*Ivioln	*Ibass	*	*Itenor	*	*Ialto	*	*Ivox	*	*Iempty	*	*Iempty
*I"Organo	*	*	*I"Violino 2do	*	*I"Violino Primo	*	*I"Violino Principuli	*I"Basso	*	*I"Tenore	*	*I"Alto	*	*I"Canto	*	*I"Clarini Secundo in D#	*	*I"Clarini Primo in D#
*I'org	*	*	*I'vl II	*	*I'vl I	*	*I'vn p	*I'B	*	*I'T	*	*I'A	*	*I'C	*	*I'clno II	*	*I'clno I
*clefF4	*	*	*clefG2	*	*clefG2	*	*clefG2	*clefF4	*	*clefC4	*	*clefC3	*	*clefC1	*	*clefG2	*	*clefG2
*	*	*	*	*	*	*	*	*	*	*	*	*	*	*	*	*ITrd-1c-2	*	*ITrd-1c-2
*k[f#c#]	*	*	*k[f#c#]	*	*k[f#c#]	*	*k[f#c#]	*k[f#c#]	*	*k[f#c#]	*	*k[f#c#]	*	*k[f#c#]	*	*k[f#c#]	*	*k[f#c#]
*b:	*	*	*b:	*	*b:	*	*b:	*b:	*	*b:	*	*b:	*	*b:	*	*b:	*	*b:
*M4/4	*	*	*M4/4	*	*M4/4	*	*M4/4	*M4/4	*	*M4/4	*	*M4/4	*	*M4/4	*	*M4/4	*	*M4/4
*met(c)	*	*	*met(c)	*	*met(c)	*	*met(c)	*met(c)	*	*met(c)	*	*met(c)	*	*met(c)	*	*met(c)	*	*met(c)
=1	=1	=1	=1	=1	=1	=1	=1	=1	=1	=1	=1	=1	=1	=1	=1	=1	=1	=1
!LO:TX:t=P:mixedbeam:problem	!	!	!	!	!	!	!	!	!	!LO:SIC:o:s=:v:przy kluczu [c# F#]	!	!	!	!	!	!	!	!
!LO:TX:a:t=Solo	!	!	!	!	!LO:SIC:o:s=:v:brak oznaczenie tempa	!	!	!	!	!LO:TX:a:t=Solo	!	!	!	!	!	!	!	!
!LO:TX:a:B:t=Andant&colon;	!	!	!LO:TX:a:t=Andante.	!	!LO:TX:a:t=2	!	!LO:SIC:o:s=:v:partia tylko w części "Regina angelorum"	!LO:TX:a:B:t=Agnus Dei Tacet	!	!LO:TX:a:B:rj:t=and	!	!LO:TX:a:B:t=Agnus Dei Tacet ||	!	!LO:TX:a:B:t=Agnus Tacet.	!	!LO:TX:a:B:t=Agnus Dei Tacet	!	!LO:TX:a:B:t=Agnus Dei Tacet
8BB/L	.	.	0r	.	0r	.	1ryy	1ryy	.	8.B\L	Ag-	1ryy	.	1ryy	.	1ryy	.	1ryy
8B\	.	.	.	.	.	.	.	.	.	.	.	.	.	.	.	.	.	.
.	.	.	.	.	.	.	.	.	.	32c#\LL	.	.	.	.	.	.	.	.
.	.	.	.	.	.	.	.	.	.	32d\JJJ	.	.	.	.	.	.	.	.
8A#X\	.	.	.	.	.	.	.	.	.	8.c#\L	-nus	.	.	.	.	.	.	.
8F#\J	.	.	.	.	.	.	.	.	.	.	.	.	.	.	.	.	.	.
.	.	.	.	.	.	.	.	.	.	32d\LL	.	.	.	.	.	.	.	.
.	.	.	.	.	.	.	.	.	.	32e\JJJ	.	.	.	.	.	.	.	.
8B\L	.	.	.	.	.	.	.	.	.	8d\	De-	.	.	.	.	.	.	.
16F#\L	#	.	.	.	.	.	.	.	.	8c#\	-i	.	.	.	.	.	.	.
16E\JJ	.	.	.	.	.	.	.	.	.	.	.	.	.	.	.	.	.	.
8D\L	6	.	.	.	.	.	.	.	.	8r	.	.	.	.	.	.	.	.
8C#\J	6\	.	.	.	.	.	.	.	.	8A#X\	Qui	.	.	.	.	.	.	.
=2	=2	=2	=2	=2	=2	=2	=2	=2	=2	=2	=2	=2	=2	=2	=2	=2	=2	=2
!LO:TX:t=P:problem=mixedbeam	!	!	!	!	!	!	!	!	!	!	!	!	!	!	!	!	!	!
8BB/L	.	.	.	.	.	.	1ryy	1ryy	.	8.B\L	tol-	1ryy	.	1ryy	.	1ryy	.	1ryy
8B\	.	.	.	.	.	.	.	.	.	.	.	.	.	.	.	.	.	.
.	.	.	.	.	.	.	.	.	.	32c#\LL	.	.	.	.	.	.	.	.
.	.	.	.	.	.	.	.	.	.	32d\JJJ	.	.	.	.	.	.	.	.
8A#X\	6	.	.	.	.	.	.	.	.	8c#\	-lis	.	.	.	.	.	.	.
!	!	!	!	!	!	!	!	!	!	!LO:SIC:o:s:=:v:pec-	!	!	!	!	!	!	!	!
8F#\J	.	.	.	.	.	.	.	.	.	16d\LL	pe-	.	.	.	.	.	.	.
.	.	.	.	.	.	.	.	.	.	16e\JJ	.	.	.	.	.	.	.	.
8B\L	.	.	.	.	.	.	.	.	.	8d\	-ca-	.	.	.	.	.	.	.
8F#\	.	.	.	.	.	.	.	.	.	8c#\	-ta	.	.	.	.	.	.	.
8F#\J	.	.	.	.	.	.	.	.	.	8r	.	.	.	.	.	.	.	.
8r	.	.	.	.	.	.	.	.	.	8f#\	qui	.	.	.	.	.	.	.
=3	=3	=3	=3	=3	=3	=3	=3	=3	=3	=3	=3	=3	=3	=3	=3	=3	=3	=3
!	!	!	!	!	!	!	!	!	!	!LO:LB:g=original	!	!	!	!	!	!	!	!
*	*	*	*8\right	*	*	*	*	*	*	*	*	*	*	*	*	*	*	*
!	!	!	!LO:SIC:o:s=:v:all\right&colon;global	!	!LO:SIC:o:s=:v:p = po&colon;global	!	!	!	!	!	!	!	!	!	!	!	!	!
!	!	!	!	!LO:DY:b	!	!LO:DY:b:t=po.	!	!	!	!	!	!	!	!	!	!	!	!
8BB/	6 4	.	8ee\	p	8gg\	p	1ryy	1ryy	.	16g\LL	tol-	1ryy	.	1ryy	.	1ryy	.	1ryy
.	.	.	.	.	.	.	.	.	.	16e\JJ	.	.	.	.	.	.	.	.
8r	.	.	8r	.	8r	.	.	.	.	8B\	-lis	.	.	.	.	.	.	.
8C#/	_ _	.	8ee\	.	8gg\	.	.	.	.	8r	.	.	.	.	.	.	.	.
8r	.	.	8r	.	8r	.	.	.	.	8g\	pe-	.	.	.	.	.	.	.
!	!	!	!	!	!	!	!	!	!	!LO:SIC:o:s:=:v:pec-	!	!	!	!	!	!	!	!
8BB/	n	.	8dd\	.	8ff#\	.	.	.	.	16f#\LL	-ca-	.	.	.	.	.	.	.
.	.	.	.	.	.	.	.	.	.	16d\JJ	.	.	.	.	.	.	.	.
8r	.	.	8r	.	8r	.	.	.	.	8B\	-ta	.	.	.	.	.	.	.
8BB/	_	.	8dd\	.	8ff#\	.	.	.	.	8r	.	.	.	.	.	.	.	.
8r	.	.	8r	.	8r	.	.	.	.	8f#\	pe-	.	.	.	.	.	.	.
=4	=4	=4	=4	=4	=4	=4	=4	=4	=4	=4	=4	=4	=4	=4	=4	=4	=4	=4
!LO:TX:t=P:problem=mixedbeam	!	!	!	!	!	!	!	!	!	!	!	!	!	!	!	!	!	!
8F#\L	#	.	2r	.	2r	.	1ryy	1ryy	.	16e\LL	-ca-	1ryy	.	1ryy	.	1ryy	.	1ryy
.	.	.	.	.	.	.	.	.	.	16c#\JJ	.	.	.	.	.	.	.	.
8A#X\	6	.	.	.	.	.	.	.	.	16r	.	.	.	.	.	.	.	.
.	.	.	.	.	.	.	.	.	.	16e\	.	.	.	.	.	.	.	.
8B\	.	.	.	.	.	.	.	.	.	16d\LL	.	.	.	.	.	.	.	.
.	.	.	.	.	.	.	.	.	.	16B\JJ	.	.	.	.	.	.	.	.
8BB/J	.	.	.	.	.	.	.	.	.	16f#\LL	.	.	.	.	.	.	.	.
.	.	.	.	.	.	.	.	.	.	16d\JJ	-ta	.	.	.	.	.	.	.
8F#\L	4	.	8r	.	8r	.	.	.	.	8d\	mun-	.	.	.	.	.	.	.
8F#\	#	.	16.a#X/LL	.	16.ff#\LL	.	.	.	.	8c#\	-di	.	.	.	.	.	.	.
.	.	.	32a#/JJk	.	32ff#\JJk	.	.	.	.	.	.	.	.	.	.	.	.	.
8F#\J	.	.	8a#/	.	8ff#\	.	.	.	.	4r	.	.	.	.	.	.	.	.
8r	.	.	8r	.	8r	.	.	.	.	.	.	.	.	.	.	.	.	.
=5	=5	=5	=5	=5	=5	=5	=5	=5	=5	=5	=5	=5	=5	=5	=5	=5	=5	=5
!LO:LB:g=original	!	!	!	!	!	!	!	!	!	!	!	!	!	!	!	!	!	!
16r	.	.	00r	.	00r	.	1ryy	1ryy	.	4.d#X\	Par-	1ryy	.	1ryy	.	1ryy	.	1ryy
16cn\LL	3	.	.	.	.	.	.	.	.	.	.	.	.	.	.	.	.	.
16B\	.	.	.	.	.	.	.	.	.	.	.	.	.	.	.	.	.	.
16c\JJ	.	.	.	.	.	.	.	.	.	.	.	.	.	.	.	.	.	.
16B\LL	.	.	.	.	.	.	.	.	.	.	.	.	.	.	.	.	.	.
16c\	.	.	.	.	.	.	.	.	.	.	.	.	.	.	.	.	.	.
16B\	.	.	.	.	.	.	.	.	.	8d#\	-ce	.	.	.	.	.	.	.
16A\JJ	.	.	.	.	.	.	.	.	.	.	.	.	.	.	.	.	.	.
4.G\	6	.	.	.	.	.	.	.	.	16e\LL	no-	.	.	.	.	.	.	.
.	.	.	.	.	.	.	.	.	.	16d#\	.	.	.	.	.	.	.	.
.	.	.	.	.	.	.	.	.	.	16e\	.	.	.	.	.	.	.	.
.	.	.	.	.	.	.	.	.	.	16f#\JJ	.	.	.	.	.	.	.	.
!	!	!	!	!	!	!	!	!	!	!LO:LB:g=original	!	!	!	!	!	!	!	!
.	.	.	.	.	.	.	.	.	.	16g\LL	.	.	.	.	.	.	.	.
.	.	.	.	.	.	.	.	.	.	16f#\JJ	.	.	.	.	.	.	.	.
8G#X\	5	.	.	.	.	.	.	.	.	16e\LL	-bis	.	.	.	.	.	.	.
.	.	.	.	.	.	.	.	.	.	16dn\JJ	.	.	.	.	.	.	.	.
=6	=6	=6	=6	=6	=6	=6	=6	=6	=6	=6	=6	=6	=6	=6	=6	=6	=6	=6
16A\LL	3	.	.	.	.	.	1ryy	1ryy	.	4.c#\	no-	1ryy	.	1ryy	.	1ryy	.	1ryy
16G#X\	.	.	.	.	.	.	.	.	.	.	.	.	.	.	.	.	.	.
16A\	.	.	.	.	.	.	.	.	.	.	.	.	.	.	.	.	.	.
16B\JJ	.	.	.	.	.	.	.	.	.	.	.	.	.	.	.	.	.	.
16A\LL	.	.	.	.	.	.	.	.	.	.	.	.	.	.	.	.	.	.
16B\	.	.	.	.	.	.	.	.	.	.	.	.	.	.	.	.	.	.
16A\	.	.	.	.	.	.	.	.	.	8c#\	.	.	.	.	.	.	.	.
16Gn\JJ	.	.	.	.	.	.	.	.	.	.	.	.	.	.	.	.	.	.
4.F#\	6	.	.	.	.	.	.	.	.	16d\LL	.	.	.	.	.	.	.	.
.	.	.	.	.	.	.	.	.	.	16c#\	.	.	.	.	.	.	.	.
.	.	.	.	.	.	.	.	.	.	16d\	.	.	.	.	.	.	.	.
.	.	.	.	.	.	.	.	.	.	16e\JJ	.	.	.	.	.	.	.	.
.	.	.	.	.	.	.	.	.	.	16f#\LL	.	.	.	.	.	.	.	.
.	.	.	.	.	.	.	.	.	.	16e\	.	.	.	.	.	.	.	.
8F#\	5	.	.	.	.	.	.	.	.	16d\	.	.	.	.	.	.	.	.
.	.	.	.	.	.	.	.	.	.	16c#\JJ	.	.	.	.	.	.	.	.
=7	=7	=7	=7	=7	=7	=7	=7	=7	=7	=7	=7	=7	=7	=7	=7	=7	=7	=7
16r	.	.	.	.	.	.	1ryy	1ryy	.	4B\	.	1ryy	.	1ryy	.	1ryy	.	1ryy
16G\LL	3	.	.	.	.	.	.	.	.	.	.	.	.	.	.	.	.	.
16F#\	.	.	.	.	.	.	.	.	.	.	.	.	.	.	.	.	.	.
16G\JJ	.	.	.	.	.	.	.	.	.	.	.	.	.	.	.	.	.	.
4E\	8	.	.	.	.	.	.	.	.	16g\LL	.	.	.	.	.	.	.	.
.	.	.	.	.	.	.	.	.	.	16f#\	.	.	.	.	.	.	.	.
.	7	.	.	.	.	.	.	.	.	16e\	.	.	.	.	.	.	.	.
.	.	.	.	.	.	.	.	.	.	16d\JJ	.	.	.	.	.	.	.	.
16r	.	.	.	.	.	.	.	.	.	4c#\	.	.	.	.	.	.	.	.
16A\LL	3	.	.	.	.	.	.	.	.	.	.	.	.	.	.	.	.	.
16G\	.	.	.	.	.	.	.	.	.	.	.	.	.	.	.	.	.	.
16A\JJ	.	.	.	.	.	.	.	.	.	.	.	.	.	.	.	.	.	.
4F#\	8	.	.	.	.	.	.	.	.	16a\LL	.	.	.	.	.	.	.	.
.	.	.	.	.	.	.	.	.	.	16g\	.	.	.	.	.	.	.	.
.	7	.	.	.	.	.	.	.	.	16f#\	.	.	.	.	.	.	.	.
.	.	.	.	.	.	.	.	.	.	16e\JJ	.	.	.	.	.	.	.	.
=8	=8	=8	=8	=8	=8	=8	=8	=8	=8	=8	=8	=8	=8	=8	=8	=8	=8	=8
16r	.	.	.	.	.	.	1ryy	1ryy	.	4.d\	-bis	1ryy	.	1ryy	.	1ryy	.	1ryy
16B\LL	3	.	.	.	.	.	.	.	.	.	.	.	.	.	.	.	.	.
16A\	.	.	.	.	.	.	.	.	.	.	.	.	.	.	.	.	.	.
16G\JJ	.	.	.	.	.	.	.	.	.	.	.	.	.	.	.	.	.	.
4F#\	6	.	.	.	.	.	.	.	.	.	.	.	.	.	.	.	.	.
.	.	.	.	.	.	.	.	.	.	8d#X\	Do-	.	.	.	.	.	.	.
4G\	3	.	.	.	.	.	.	.	.	32e\LLL	.	.	.	.	.	.	.	.
.	.	.	.	.	.	.	.	.	.	32d#\	.	.	.	.	.	.	.	.
.	6	.	.	.	.	.	.	.	.	32e\	.	.	.	.	.	.	.	.
.	.	.	.	.	.	.	.	.	.	32f#\JJJ	.	.	.	.	.	.	.	.
!	!	!	!	!	!	!	!	!	!	!LO:LB:g=original	!	!	!	!	!	!	!	!
.	.	.	.	.	.	.	.	.	.	16g\LL	.	.	.	.	.	.	.	.
.	.	.	.	.	.	.	.	.	.	16e\JJ	.	.	.	.	.	.	.	.
!LO:TX:t=P:problem=mixedbeam	!	!	!	!	!	!	!	!	!	!	!	!	!	!	!	!	!	!
8A\L	4	.	.	.	.	.	.	.	.	8.c#\	.	.	.	.	.	.	.	.
8AA/J	3	.	.	.	.	.	.	.	.	.	.	.	.	.	.	.	.	.
.	.	.	.	.	.	.	.	.	.	16c#\	-mi-	.	.	.	.	.	.	.
=9	=9	=9	=9	=9	=9	=9	=9	=9	=9	=9	=9	=9	=9	=9	=9	=9	=9	=9
!LO:LB:g=original	!	!	!	!	!	!	!	!	!	!	!	!	!	!	!	!	!	!
*	*	*	*8\right	*	*	*	*	*	*	*	*	*	*	*	*	*	*	*
!	!	!LO:DY:a	!	!LO:DY:a	!LO:SIC:o:s=:v:f = for&colon;global	!LO:DY:a:t=for	!	!	!	!	!	!	!	!	!	!	!	!
8D\L	.	f	8dd\L	f	8dd\L	f	1ryy	1ryy	.	4d\	-ne	1ryy	.	1ryy	.	1ryy	.	1ryy
*	*	*	*32\right	*	*	*	*	*	*	*	*	*	*	*	*	*	*	*
32A'\LL	.	.	(32a\LL	.	(32a\LL	.	.	.	.	.	.	.	.	.	.	.	.	.
32G'\	.	.	32g\	.	32g\	.	.	.	.	.	.	.	.	.	.	.	.	.
32F#'\	.	.	32f#\	.	32f#\	.	.	.	.	.	.	.	.	.	.	.	.	.
32E'\JJJ	.	.	32e\JJJ)	.	32e\JJJ)	.	.	.	.	.	.	.	.	.	.	.	.	.
16.D\LL	.	.	16.d/LL	.	16.d/LL	.	.	.	.	4r	.	.	.	.	.	.	.	.
32E\K	.	.	32d/K	.	32d/K	.	.	.	.	.	.	.	.	.	.	.	.	.
16.F#\	.	.	16.f#/	.	16.f#/	.	.	.	.	.	.	.	.	.	.	.	.	.
32G#X\JJk	.	.	32g#X/JJk	.	32g#X/JJk	.	.	.	.	.	.	.	.	.	.	.	.	.
!LO:TX:t=P:problem=mixedbeam	!	!	!	!	!	!	!	!	!	!	!	!	!	!	!	!	!	!
!	!	!	!LO:LB:g=original	!	!	!	!	!	!	!	!	!	!	!	!	!	!	!
8A\L	.	.	8a/L	.	8a/L	.	.	.	.	2r	.	.	.	.	.	.	.	.
8AA/J	.	.	8A/J	.	8A/J	.	.	.	.	.	.	.	.	.	.	.	.	.
4r	.	.	8r	.	8r	.	.	.	.	.	.	.	.	.	.	.	.	.
*	*	*	*16\right	*	*	*	*	*	*	*	*	*	*	*	*	*	*	*
.	.	.	16ee\LL	.	16gg\LL	.	.	.	.	.	.	.	.	.	.	.	.	.
.	.	.	16cc#\JJ	.	16ee\JJ	.	.	.	.	.	.	.	.	.	.	.	.	.
=10	=10	=10	=10	=10	=10	=10	=10	=10	=10	=10	=10	=10	=10	=10	=10	=10	=10	=10
!	!	!	!LO:TX:t=P:problem=mixedbeam	!	!	!	!	!	!	!LO:TX:b:t=3	!	!	!	!	!	!	!	!
2r	.	.	16cc#\LL	.	16ee\LL	.	1ryy	1ryy	.	0r	.	1ryy	.	1ryy	.	1ryy	.	1ryy
.	.	.	16dd\	.	16ff#\	.	.	.	.	.	.	.	.	.	.	.	.	.
.	.	.	16dd\	.	16ff#\	.	.	.	.	.	.	.	.	.	.	.	.	.
.	.	.	16f#/JJ	.	16dd\JJ	.	.	.	.	.	.	.	.	.	.	.	.	.
.	.	.	16f#/LL	.	16dd\LL	.	.	.	.	.	.	.	.	.	.	.	.	.
.	.	.	16g/	.	16ee\	.	.	.	.	.	.	.	.	.	.	.	.	.
.	.	.	16g/	.	16ee\	.	.	.	.	.	.	.	.	.	.	.	.	.
.	.	.	16e/JJ	.	16cc#\JJ	.	.	.	.	.	.	.	.	.	.	.	.	.
16r	.	.	8f#/L	.	8dd\L	.	.	.	.	.	.	.	.	.	.	.	.	.
16A'\LL	.	.	.	.	.	.	.	.	.	.	.	.	.	.	.	.	.	.
16G#X'\	.	.	8e/J	.	8cc#\J	.	.	.	.	.	.	.	.	.	.	.	.	.
16A'\JJ	.	.	.	.	.	.	.	.	.	.	.	.	.	.	.	.	.	.
!	!	!	!	!	!LO:LB:g=original	!	!	!	!	!	!	!	!	!	!	!	!	!
8AA/	.	.	8r	.	8r	.	.	.	.	.	.	.	.	.	.	.	.	.
8r	.	.	16ee\LL	.	16gg\LL	.	.	.	.	.	.	.	.	.	.	.	.	.
.	.	.	16cc#\JJ	.	16ee\JJ	.	.	.	.	.	.	.	.	.	.	.	.	.
=11	=11	=11	=11	=11	=11	=11	=11	=11	=11	=11	=11	=11	=11	=11	=11	=11	=11	=11
!	!	!	!LO:TX:t=P:problem=mixedbeam	!	!	!	!	!	!	!	!	!	!	!	!	!	!	!
2r	.	.	16cc#\LL	.	16ee\LL	.	1ryy	1ryy	.	.	.	1ryy	.	1ryy	.	1ryy	.	1ryy
.	.	.	16dd\	.	16ff#\	.	.	.	.	.	.	.	.	.	.	.	.	.
.	.	.	16dd\	.	16ff#\	.	.	.	.	.	.	.	.	.	.	.	.	.
.	.	.	16f#/JJ	.	16dd\JJ	.	.	.	.	.	.	.	.	.	.	.	.	.
.	.	.	16f#/LL	.	16dd\LL	.	.	.	.	.	.	.	.	.	.	.	.	.
.	.	.	16g/	.	16ee\	.	.	.	.	.	.	.	.	.	.	.	.	.
.	.	.	16g/	.	16ee\	.	.	.	.	.	.	.	.	.	.	.	.	.
.	.	.	16e/JJ	.	16cc#\JJ	.	.	.	.	.	.	.	.	.	.	.	.	.
!	!	!	!LO:TX:t=P:problem=mixedbeam	!	!	!	!	!	!	!	!	!	!	!	!	!	!	!
8r	.	.	8f#/L	.	16dd\LL	.	.	.	.	.	.	.	.	.	.	.	.	.
.	.	.	.	.	16cc#\	.	.	.	.	.	.	.	.	.	.	.	.	.
8A\L	7_	.	8e/	.	16b\	.	.	.	.	.	.	.	.	.	.	.	.	.
.	.	.	.	.	16a\JJ	.	.	.	.	.	.	.	.	.	.	.	.	.
8B\	.	.	8dd\	.	4gg\	.	.	.	.	.	.	.	.	.	.	.	.	.
8c#\J	x	.	8ee\J	.	.	.	.	.	.	.	.	.	.	.	.	.	.	.
=12	=12	=12	=12	=12	=12	=12	=12	=12	=12	=12	=12	=12	=12	=12	=12	=12	=12	=12
!LO:TX:t=P:problem=mixedbeam	!	!	!	!	!	!	!	!	!	!	!	!	!	!	!	!	!	!
8d\L	.	.	16dd\LL	.	16ff#\LL	.	1ryy	1ryy	.	1r	.	1ryy	.	1ryy	.	1ryy	.	1ryy
.	.	.	16ff#\JJ	.	16aa\JJ	.	.	.	.	.	.	.	.	.	.	.	.	.
8G\	.	.	16r	.	16r	.	.	.	.	.	.	.	.	.	.	.	.	.
.	.	.	16dd\	.	16bb\	.	.	.	.	.	.	.	.	.	.	.	.	.
8A\	4	.	8f#/L	.	8dd\L	.	.	.	.	.	.	.	.	.	.	.	.	.
8AA/J	3	.	8e/J	.	8cc#\J	.	.	.	.	.	.	.	.	.	.	.	.	.
!	!	!	!	!	!LO:TX:t=P:problem=mixedbeam	!	!	!	!	!	!	!	!	!	!	!	!	!
8D\L	.	.	8f#/L	.	8dd\L	.	.	.	.	.	.	.	.	.	.	.	.	.
8D\	.	.	16.f#/L	.	16d/L	.	.	.	.	.	.	.	.	.	.	.	.	.
.	.	.	.	.	16d/JJ	.	.	.	.	.	.	.	.	.	.	.	.	.
.	.	.	32f#/JJk	.	.	.	.	.	.	.	.	.	.	.	.	.	.	.
!	!	!	!LO:LB:g=original	!	!	!	!	!	!	!	!	!	!	!	!	!	!	!
8D\J	.	.	8f#/	.	8d/	.	.	.	.	.	.	.	.	.	.	.	.	.
8r	.	.	8r	.	8r	.	.	.	.	.	.	.	.	.	.	.	.	.
=13	=13	=13	=13	=13	=13	=13	=13	=13	=13	=13	=13	=13	=13	=13	=13	=13	=13	=13
!LO:TX:b:t=Solo.	!	!	!LO:TX:a:t=4.	!	!	!	!	!	!	!	!	!	!	!	!	!	!	!
8D\L	.	.	00r	.	00r	.	1ryy	1ryy	.	8.d\L	Ag-	1ryy	.	1ryy	.	1ryy	.	1ryy
8d\	.	.	.	.	.	.	.	.	.	.	.	.	.	.	.	.	.	.
.	.	.	.	.	.	.	.	.	.	32e\LL	.	.	.	.	.	.	.	.
.	.	.	.	.	.	.	.	.	.	32f#\JJJ	.	.	.	.	.	.	.	.
8c#\	6	.	.	.	.	.	.	.	.	8.e\L	-nus	.	.	.	.	.	.	.
8A\J	.	.	.	.	.	.	.	.	.	.	.	.	.	.	.	.	.	.
.	.	.	.	.	.	.	.	.	.	32f#\LL	.	.	.	.	.	.	.	.
.	.	.	.	.	.	.	.	.	.	32g\JJJ	.	.	.	.	.	.	.	.
8d\L	.	.	.	.	.	.	.	.	.	8f#\	De-	.	.	.	.	.	.	.
16A\L	.	.	.	.	.	.	.	.	.	8e\	-i	.	.	.	.	.	.	.
16G\JJ	.	.	.	.	.	.	.	.	.	.	.	.	.	.	.	.	.	.
8F#\L	6	.	.	.	.	.	.	.	.	8r	.	.	.	.	.	.	.	.
8E\J	.	.	.	.	.	.	.	.	.	8A\	qui	.	.	.	.	.	.	.
=14	=14	=14	=14	=14	=14	=14	=14	=14	=14	=14	=14	=14	=14	=14	=14	=14	=14	=14
!LO:LB:g=original	!	!	!	!	!	!	!	!	!	!	!	!	!	!	!	!	!	!
8D\L	.	.	.	.	.	.	1ryy	1ryy	.	8.d\L	tol-	1ryy	.	1ryy	.	1ryy	.	1ryy
8d\	.	.	.	.	.	.	.	.	.	.	.	.	.	.	.	.	.	.
.	.	.	.	.	.	.	.	.	.	32e\LL	.	.	.	.	.	.	.	.
.	.	.	.	.	.	.	.	.	.	32f#\JJJ	.	.	.	.	.	.	.	.
!	!	!	!	!	!	!	!	!	!	!LO:N:vis=4.	!	!	!	!	!	!	!	!
8c#\	6	.	.	.	.	.	.	.	.	8.e\	-lis	.	.	.	.	.	.	.
8A\J	.	.	.	.	.	.	.	.	.	.	.	.	.	.	.	.	.	.
!	!	!	!	!	!	!	!	!	!	!LO:SIC:o:s:=:v:pec-	!	!	!	!	!	!	!	!
.	.	.	.	.	.	.	.	.	.	32f#\LLL	pe-	.	.	.	.	.	.	.
.	.	.	.	.	.	.	.	.	.	32g\JJJ	.	.	.	.	.	.	.	.
8d\L	.	.	.	.	.	.	.	.	.	8f#\	-ca-	.	.	.	.	.	.	.
8A\	.	.	.	.	.	.	.	.	.	8e\	-ta	.	.	.	.	.	.	.
!	!	!	!	!	!	!	!	!	!	!LO:LB:g=original	!	!	!	!	!	!	!	!
8A\J	.	.	.	.	.	.	.	.	.	8r	.	.	.	.	.	.	.	.
8r	.	.	.	.	.	.	.	.	.	8A\	pe-	.	.	.	.	.	.	.
=15	=15	=15	=15	=15	=15	=15	=15	=15	=15	=15	=15	=15	=15	=15	=15	=15	=15	=15
8G\L	.	.	.	.	.	.	1ryy	1ryy	.	16B\LL	-ca-	1ryy	.	1ryy	.	1ryy	.	1ryy
.	.	.	.	.	.	.	.	.	.	16G\J	.	.	.	.	.	.	.	.
8G\	.	.	.	.	.	.	.	.	.	8g\J	.	.	.	.	.	.	.	.
8E\	6	.	.	.	.	.	.	.	.	16g\LL	.	.	.	.	.	.	.	.
.	.	.	.	.	.	.	.	.	.	16B\	.	.	.	.	.	.	.	.
8E\J	3	.	.	.	.	.	.	.	.	16c#\	.	.	.	.	.	.	.	.
.	.	.	.	.	.	.	.	.	.	16B\JJ	.	.	.	.	.	.	.	.
!	!	!	!	!	!	!	!	!	!	!LO:TX:t=P:problem=mixedbeam	!	!	!	!	!	!	!	!
8F#\L	3	.	.	.	.	.	.	.	.	16A/LL	.	.	.	.	.	.	.	.
.	.	.	.	.	.	.	.	.	.	16F#/J	.	.	.	.	.	.	.	.
8F#\	5	.	.	.	.	.	.	.	.	8f#\J	.	.	.	.	.	.	.	.
!	!	!	!	!	!	!	!	!	!	!LO:TX:t=P:problem=mixedbeam	!	!	!	!	!	!	!	!
8D\	6	.	.	.	.	.	.	.	.	16f#\LL	.	.	.	.	.	.	.	.
.	.	.	.	.	.	.	.	.	.	16A/	.	.	.	.	.	.	.	.
8D\J	3	.	.	.	.	.	.	.	.	16B/	.	.	.	.	.	.	.	.
.	.	.	.	.	.	.	.	.	.	16A/JJ	.	.	.	.	.	.	.	.
=16	=16	=16	=16	=16	=16	=16	=16	=16	=16	=16	=16	=16	=16	=16	=16	=16	=16	=16
!	!	!	!	!	!	!	!	!	!	!LO:TX:t=P:problem=mixedbeam	!	!	!	!	!	!	!	!
8E\L	3	.	.	.	.	.	1ryy	1ryy	.	16G/LL	.	1ryy	.	1ryy	.	1ryy	.	1ryy
.	.	.	.	.	.	.	.	.	.	16E/J	.	.	.	.	.	.	.	.
8E\	.	.	.	.	.	.	.	.	.	8e\J	.	.	.	.	.	.	.	.
8C#\	5	.	.	.	.	.	.	.	.	16e\LL	.	.	.	.	.	.	.	.
.	6	.	.	.	.	.	.	.	.	16c#\JJ	.	.	.	.	.	.	.	.
8C#\J	5	.	.	.	.	.	.	.	.	16A\LL	-ta	.	.	.	.	.	.	.
.	.	.	.	.	.	.	.	.	.	16G\JJ	.	.	.	.	.	.	.	.
8D/L	.	.	.	.	.	.	.	.	.	8F#/	mun-	.	.	.	.	.	.	.
8AA/J	.	.	.	.	.	.	.	.	.	8E/	-di	.	.	.	.	.	.	.
4r	.	.	.	.	.	.	.	.	.	8d\	ex-	.	.	.	.	.	.	.
.	.	.	.	.	.	.	.	.	.	8d\	-au-	.	.	.	.	.	.	.
=17	=17	=17	=17	=17	=17	=17	=17	=17	=17	=17	=17	=17	=17	=17	=17	=17	=17	=17
!	!	!LO:DY:a	!	!LO:DY:a	!	!LO:DY:a	!	!	!	!	!	!	!	!	!	!	!	!
8r	.	p	8r	.	8r	p	1ryy	1ryy	.	4.d\	-di	1ryy	.	1ryy	.	1ryy	.	1ryy
16D\LL	.	.	16d/LL	p	16d/LL	.	.	.	.	.	.	.	.	.	.	.	.	.
16E\JJ	.	.	16e/JJ	.	16e/JJ	.	.	.	.	.	.	.	.	.	.	.	.	.
16F#\LL	.	.	16f#/LL	.	16f#/LL	.	.	.	.	.	.	.	.	.	.	.	.	.
16G\	.	.	16g/	.	16g/	.	.	.	.	.	.	.	.	.	.	.	.	.
16A\	.	.	16a/	.	16a/	.	.	.	.	8cn\	nos	.	.	.	.	.	.	.
16F#\JJ	.	.	16f#/JJ	.	16f#/JJ	.	.	.	.	.	.	.	.	.	.	.	.	.
!	!	!	!	!	!	!	!	!	!	!LO:LB:g=original	!	!	!	!	!	!	!	!
4G\	.	.	4g/	.	8g/L	.	.	.	.	16B\	Do-	.	.	.	.	.	.	.
.	.	.	.	.	.	.	.	.	.	16A\	-mi-	.	.	.	.	.	.	.
.	.	.	.	.	8G/J	.	.	.	.	8G/	-ne	.	.	.	.	.	.	.
4r	.	.	4r	.	4r	.	.	.	.	8e\	ex-	.	.	.	.	.	.	.
.	.	.	.	.	.	.	.	.	.	8e\	-au-	.	.	.	.	.	.	.
=18	=18	=18	=18	=18	=18	=18	=18	=18	=18	=18	=18	=18	=18	=18	=18	=18	=18	=18
8r	.	.	8r	.	8r	.	1ryy	1ryy	.	4.e\	-di	1ryy	.	1ryy	.	1ryy	.	1ryy
16E\LL	#	.	16e/LL	.	16e/LL	.	.	.	.	.	.	.	.	.	.	.	.	.
16F#\JJ	.	.	16f#/JJ	.	16f#/JJ	.	.	.	.	.	.	.	.	.	.	.	.	.
16G#X\LL	.	.	16g#X/LL	.	16g#X/LL	.	.	.	.	.	.	.	.	.	.	.	.	.
16A\	.	.	16a/	.	16a/	.	.	.	.	.	.	.	.	.	.	.	.	.
16B\	.	.	16b/	.	16b/	.	.	.	.	8d\	nos	.	.	.	.	.	.	.
16G#\JJ	.	.	16g#/JJ	.	16g#/JJ	.	.	.	.	.	.	.	.	.	.	.	.	.
4A\	.	.	4a/	.	4a/	.	.	.	.	16c#X\	Do-	.	.	.	.	.	.	.
.	.	.	.	.	.	.	.	.	.	16B\	-mi-	.	.	.	.	.	.	.
.	.	.	.	.	.	.	.	.	.	8A\	-ne	.	.	.	.	.	.	.
4r	.	.	4r	.	4r	.	.	.	.	8e\	ex-	.	.	.	.	.	.	.
.	.	.	.	.	.	.	.	.	.	8f#\	-au-	.	.	.	.	.	.	.
=19	=19	=19	=19	=19	=19	=19	=19	=19	=19	=19	=19	=19	=19	=19	=19	=19	=19	=19
!LO:LB:g=original	!	!	!	!	!LO:LB:g=original	!	!	!	!	!	!	!	!	!	!	!	!	!
8r	.	.	8r	.	8r	.	1ryy	1ryy	.	4.f#\	-di	1ryy	.	1ryy	.	1ryy	.	1ryy
16F#\LL	#	.	16f#/LL	.	16f#/LL	.	.	.	.	.	.	.	.	.	.	.	.	.
16G#X\JJ	.	.	16g#X/JJ	.	16g#X/JJ	.	.	.	.	.	.	.	.	.	.	.	.	.
16A#X\LL	.	.	16a#X/LL	.	16a#X/LL	.	.	.	.	.	.	.	.	.	.	.	.	.
16B\	.	.	16b/	.	16b/	.	.	.	.	.	.	.	.	.	.	.	.	.
16c#\	.	.	16cc#/	.	16cc#/	.	.	.	.	8e\	nos	.	.	.	.	.	.	.
!	!	!	!LO:SIC:o:s:=:v:16a#	!	!	!	!	!	!	!	!	!	!	!	!	!	!	!
16A#\JJ	.	.	16b/JJ	.	16a#X/JJ	.	.	.	.	.	.	.	.	.	.	.	.	.
8B\	n	.	8f#/	.	8dd\	.	.	.	.	16d\LL	Do-	.	.	.	.	.	.	.
.	.	.	.	.	.	.	.	.	.	16B\	.	.	.	.	.	.	.	.
8r	.	.	8r	.	8r	.	.	.	.	16A#X\	.	.	.	.	.	.	.	.
.	.	.	.	.	.	.	.	.	.	16B\JJ	.	.	.	.	.	.	.	.
8F#\	#	.	8a#X/	.	8cc#\	.	.	.	.	16F#\LL	.	.	.	.	.	.	.	.
.	.	.	.	.	.	.	.	.	.	16A#\	.	.	.	.	.	.	.	.
8r	.	.	8r	.	8r	.	.	.	.	16c#\	.	.	.	.	.	.	.	.
.	.	.	.	.	.	.	.	.	.	16e\JJ	.	.	.	.	.	.	.	.
=20	=20	=20	=20	=20	=20	=20	=20	=20	=20	=20	=20	=20	=20	=20	=20	=20	=20	=20
8B\	.	.	8f#/	.	8dd\	.	1ryy	1ryy	.	16d\LL	.	1ryy	.	1ryy	.	1ryy	.	1ryy
.	.	.	.	.	.	.	.	.	.	16B\	.	.	.	.	.	.	.	.
!	!	!	!	!	!	!	!	!	!	!LO:SIC:o:s:=:v:16A#	!	!	!	!	!	!	!	!
8r	.	.	8r	.	8r	.	.	.	.	16A\	.	.	.	.	.	.	.	.
.	.	.	.	.	.	.	.	.	.	16B\JJ	.	.	.	.	.	.	.	.
8F#\	#	.	8a#X/	.	8cc#\	.	.	.	.	16F#\LL	.	.	.	.	.	.	.	.
!	!	!	!	!	!	!	!	!	!	!LO:SIC:o:s:=:v:16A#	!	!	!	!	!	!	!	!
.	.	.	.	.	.	.	.	.	.	16A\	.	.	.	.	.	.	.	.
8r	.	.	8r	.	8r	.	.	.	.	16c#\	.	.	.	.	.	.	.	.
.	.	.	.	.	.	.	.	.	.	16e\JJ	.	.	.	.	.	.	.	.
!	!	!	!LO:LB:g=original	!	!	!	!	!	!	!LO:LB:g=original	!	!	!	!	!	!	!	!
8B\L	.	.	8f#/	.	4dd\	.	.	.	.	16d\LL	.	.	.	.	.	.	.	.
.	.	.	.	.	.	.	.	.	.	16B\	.	.	.	.	.	.	.	.
8E\	n	.	8r	.	.	.	.	.	.	16g\	.	.	.	.	.	.	.	.
.	.	.	.	.	.	.	.	.	.	16d\JJ	.	.	.	.	.	.	.	.
8E\	6	.	4r	.	4r	.	.	.	.	16e\LL	.	.	.	.	.	.	.	.
.	.	.	.	.	.	.	.	.	.	16dn\	.	.	.	.	.	.	.	.
8E\J	5	.	.	.	.	.	.	.	.	16c#\	.	.	.	.	.	.	.	.
.	.	.	.	.	.	.	.	.	.	16B\JJ	.	.	.	.	.	.	.	.
=21	=21	=21	=21	=21	=21	=21	=21	=21	=21	=21	=21	=21	=21	=21	=21	=21	=21	=21
8E\L	#4 2	.	1r	.	1r	.	1ryy	1ryy	.	16A#X\	.	1ryy	.	1ryy	.	1ryy	.	1ryy
.	.	.	.	.	.	.	.	.	.	16A#\	-mi-	.	.	.	.	.	.	.
16D\L	6_	.	.	.	.	.	.	.	.	8B\	-ne	.	.	.	.	.	.	.
16C#\JJ	.	.	.	.	.	.	.	.	.	.	.	.	.	.	.	.	.	.
8D\L	x	.	.	.	.	.	.	.	.	8r	.	.	.	.	.	.	.	.
8F#\J	#	.	.	.	.	.	.	.	.	8c#\	ex-	.	.	.	.	.	.	.
!LO:TX:t=P:problem=mixedbeam	!	!	!	!	!	!	!	!	!	!	!	!	!	!	!	!	!	!
8B\L	n	.	.	.	.	.	.	.	.	32d\LLL	-au-	.	.	.	.	.	.	.
.	.	.	.	.	.	.	.	.	.	32c#\	.	.	.	.	.	.	.	.
.	.	.	.	.	.	.	.	.	.	32d\	.	.	.	.	.	.	.	.
.	.	.	.	.	.	.	.	.	.	32e\JJJ	.	.	.	.	.	.	.	.
8E\	6 5	.	.	.	.	.	.	.	.	32f#\LLL	-di	.	.	.	.	.	.	.
.	.	.	.	.	.	.	.	.	.	32d\JJJ	.	.	.	.	.	.	.	.
.	.	.	.	.	.	.	.	.	.	32c#\LLL	nos	.	.	.	.	.	.	.
.	.	.	.	.	.	.	.	.	.	32B\JJJ	.	.	.	.	.	.	.	.
8F#\	4	.	.	.	.	.	.	.	.	8.c#\	Do-	.	.	.	.	.	.	.
8FF#/J	#	.	.	.	.	.	.	.	.	.	.	.	.	.	.	.	.	.
.	.	.	.	.	.	.	.	.	.	16c#\	-mi-	.	.	.	.	.	.	.
=22	=22	=22	=22	=22	=22	=22	=22	=22	=22	=22	=22	=22	=22	=22	=22	=22	=22	=22
!	!	!LO:DY:b	!	!LO:DY:a	!	!LO:DY:a	!	!	!	!	!	!	!	!	!	!	!	!
16B'\LL	.	f	16b\LL|	f	16b\LL|	f	1ryy	1ryy	.	4B\	-ne	1ryy	.	1ryy	.	1ryy	.	1ryy
16c#'\	.	.	16cc#\|	.	16cc#\|	.	.	.	.	.	.	.	.	.	.	.	.	.
16d'\	.	.	16dd\|	.	16dd\|	.	.	.	.	.	.	.	.	.	.	.	.	.
16c#'\JJ	.	.	16cc#\JJ|	.	16cc#\JJ|	.	.	.	.	.	.	.	.	.	.	.	.	.
16B\LL|	.	.	16b/LL|	.	16b/LL|	.	.	.	.	4r	.	.	.	.	.	.	.	.
16A\|	.	.	16an/|	.	16a/|	.	.	.	.	.	.	.	.	.	.	.	.	.
16G\JJ|	.	.	16gn/|	.	16g/|	.	.	.	.	.	.	.	.	.	.	.	.	.
16F#\LL|	.	.	16f#/JJ|	.	16f#/JJ|	.	.	.	.	.	.	.	.	.	.	.	.	.
16G\|	.	.	16g/LL|	.	16g/LL|	.	.	.	.	2r	.	.	.	.	.	.	.	.
16A\|	.	.	16a/|	.	16a/|	.	.	.	.	.	.	.	.	.	.	.	.	.
16B\|	.	.	16b/|	.	16b/|	.	.	.	.	.	.	.	.	.	.	.	.	.
16A\JJ|	.	.	16a/JJ|	.	16a/JJ|	.	.	.	.	.	.	.	.	.	.	.	.	.
16G\LL|	.	.	16g/LL|	.	16g/LL|	.	.	.	.	.	.	.	.	.	.	.	.	.
16F#\|	.	.	16f#/|	.	16f#/|	.	.	.	.	.	.	.	.	.	.	.	.	.
16E\|	.	.	16e/|	.	16e/|	.	.	.	.	.	.	.	.	.	.	.	.	.
16E#X\JJ|	.	.	16e#X/JJ|	.	16e#X/JJ|	.	.	.	.	.	.	.	.	.	.	.	.	.
=23	=23	=23	=23	=23	=23	=23	=23	=23	=23	=23	=23	=23	=23	=23	=23	=23	=23	=23
!LO:LB:g=original	!	!	!	!	!	!	!	!	!	!	!	!	!	!	!	!	!	!
4F#'\	.	.	4f#/	.	4f#/	.	1ryy	1ryy	.	0r	.	1ryy	.	1ryy	.	1ryy	.	1ryy
4r	.	.	8r	.	8r	.	.	.	.	.	.	.	.	.	.	.	.	.
.	.	.	16dd\LL	.	16ff#\LL	.	.	.	.	.	.	.	.	.	.	.	.	.
.	.	.	16cc#\JJ	.	16dd\JJ	.	.	.	.	.	.	.	.	.	.	.	.	.
2r	.	.	16b\LL	.	16dd\LL	.	.	.	.	.	.	.	.	.	.	.	.	.
.	.	.	16cc#\	.	16ee\	.	.	.	.	.	.	.	.	.	.	.	.	.
.	.	.	16cc#\	.	16ee\	.	.	.	.	.	.	.	.	.	.	.	.	.
.	.	.	16a#X\JJ	.	16cc#\JJ	.	.	.	.	.	.	.	.	.	.	.	.	.
.	.	.	16a#\LL	.	16cc#\LL	.	.	.	.	.	.	.	.	.	.	.	.	.
.	.	.	16b\	.	16dd\	.	.	.	.	.	.	.	.	.	.	.	.	.
.	.	.	16b\	.	16dd\	.	.	.	.	.	.	.	.	.	.	.	.	.
.	.	.	16d\JJ	.	16b\JJ	.	.	.	.	.	.	.	.	.	.	.	.	.
=24	=24	=24	=24	=24	=24	=24	=24	=24	=24	=24	=24	=24	=24	=24	=24	=24	=24	=24
!	!	!	!	!	!LO:LB:g=original	!	!	!	!	!	!	!	!	!	!	!	!	!
4r	.	.	16d/LL	.	16b\LL	.	1ryy	1ryy	.	.	.	1ryy	.	1ryy	.	1ryy	.	1ryy
.	.	.	16e/	.	16cc#\	.	.	.	.	.	.	.	.	.	.	.	.	.
.	.	.	16e/	.	16cc#\	.	.	.	.	.	.	.	.	.	.	.	.	.
.	.	.	16c#/JJ	.	16a#X\JJ	.	.	.	.	.	.	.	.	.	.	.	.	.
8r	.	.	8d/L	.	8b/L	.	.	.	.	.	.	.	.	.	.	.	.	.
8BB/	n	.	8d/J	.	8b/	.	.	.	.	.	.	.	.	.	.	.	.	.
!LO:TX:t=P:problem=mixedbeam	!	!	!	!	!	!	!	!	!	!	!	!	!	!	!	!	!	!
8F#\L	#	.	4c#/	.	8b/	.	.	.	.	.	.	.	.	.	.	.	.	.
8FF#/	.	.	.	.	8a#X/J	.	.	.	.	.	.	.	.	.	.	.	.	.
!	!	!	!LO:LB:g=original	!	!	!	!	!	!	!	!	!	!	!	!	!	!	!
8F#\	.	.	8ff#\L	.	8ff#\L	.	.	.	.	.	.	.	.	.	.	.	.	.
8F#\J	.	.	16gg#X\L	.	16gg#X\L	.	.	.	.	.	.	.	.	.	.	.	.	.
!	!	!	!	!	!LO:SIC:o:s:=:v:16aa#	!	!	!	!	!	!	!	!	!	!	!	!	!
.	.	.	16aa#X\JJ	.	16aa\JJ	.	.	.	.	.	.	.	.	.	.	.	.	.
=25	=25	=25	=25	=25	=25	=25	=25	=25	=25	=25	=25	=25	=25	=25	=25	=25	=25	=25
!LO:TX:t=P:problem=mixedbeam	!	!	!	!	!	!	!	!	!	!	!	!	!	!	!	!	!	!
8D\L	6	.	16r	.	16r	.	1ryy	1ryy	.	1r	.	1ryy	.	1ryy	.	1ryy	.	1ryy
.	.	.	16bb\	.	16bb\	.	.	.	.	.	.	.	.	.	.	.	.	.
8E\	6 5	.	16r	.	16r	.	.	.	.	.	.	.	.	.	.	.	.	.
.	.	.	16ee\	.	16gg\	.	.	.	.	.	.	.	.	.	.	.	.	.
8F#\	4	.	16r	.	16r	.	.	.	.	.	.	.	.	.	.	.	.	.
.	.	.	16dd\	.	16ff#\	.	.	.	.	.	.	.	.	.	.	.	.	.
8FF#/J	#	.	16r	.	16r	.	.	.	.	.	.	.	.	.	.	.	.	.
.	.	.	16e/	.	16a#X/	.	.	.	.	.	.	.	.	.	.	.	.	.
8BB/L	n	.	8d/L	.	8b/L	.	.	.	.	.	.	.	.	.	.	.	.	.
8BB/J	.	.	16.d/L	.	16.f#/L	.	.	.	.	.	.	.	.	.	.	.	.	.
.	.	.	32d/JJk	.	32f#/JJk	.	.	.	.	.	.	.	.	.	.	.	.	.
4BB/	.	.	8d/	.	4f#/	.	.	.	.	.	.	.	.	.	.	.	.	.
.	.	.	8r	.	.	.	.	.	.	.	.	.	.	.	.	.	.	.
*clefC4	*	*	*	*	*	*	*	*	*	*	*	*	*	*	*	*	*	*
=26||	=26||	=26||	=26||	=26||	=26||	=26||	=26||	=26||	=26||	=26||	=26||	=26||	=26||	=26||	=26||	=26||	=26||	=26||
!	!	!	!LO:LB:g=original	!	!LO:LB:g=original	!	!	!	!	!LO:LB:g=original	!	!	!	!	!	!	!	!
*k[f#c#]	*	*	*k[f#c#]	*	*k[f#c#]	*	*k[f#c#]	*k[f#c#]	*	*k[f#c#]	*	*k[f#c#]	*	*k[f#c#]	*	*k[f#c#]	*	*k[f#c#]
*M4/4	*	*	*M4/4	*	*M4/4	*	*M4/4	*M4/4	*	*M4/4	*	*M4/4	*	*M4/4	*	*M4/4	*	*M4/4
*met(c)	*	*	*met(c)	*	*met(c)	*	*met(c)	*met(c)	*	*met(c)	*	*met(c)	*	*met(c)	*	*met(c)	*	*met(c)
!LO:TX:b:t=T	!	!	!	!	!	!	!	!	!	!	!	!	!	!	!	!LO:TX:a:t=2	!	!LO:TX:a:B:t=Agnus
!LO:TX:b:B:t=Agnus	!	!	!LO:TX:a:B:t=Allo&colon;	!	!LO:TX:a:B:t=allo	!	!	!LO:TX:a:t=2	!	!LO:SIC:o:s=:v:przy kluczu [c# F#]	!	!	!	!	!	!LO:TX:a:B:t=Agnus	!	!LO:TX:b:t=2
!LO:TX:a:B:t=Allo	!	!	!	!	!LO:TX:B:rj:t=Agnus	!	!	!LO:TX:a:B:t=Allo.	!	!LO:TX:a:B:t=allo	!	!LO:TX:a:t=allo	!	!LO:TX:a:t=allo	!	!LO:TX:a:B:t=allo	!	!LO:TX:a:B:t=allo
8d\L	5_ 3_	.	4f#/	.	4a\	.	1ryy	0r	.	4d\	Ag-	4f#\	Ag-	4a\	Ag-	0r	p	0r
8d\	.	.	.	.	.	.	.	.	.	.	.	.	.	.	.	.	.	.
8d\	.	.	4f#/	.	4a\	.	.	.	.	4d\	-nus	4f#\	-nus	4a\	-nus	.	.	.
8d\J	.	.	.	.	.	.	.	.	.	.	.	.	.	.	.	.	.	.
*2\right	*	*	*	*	*	*	*	*	*	*	*	*	*	*	*	*	*	*
*tremolo	*	*	*	*	*	*	*	*	*	*	*	*	*	*	*	*	*	*
8d\L	6_ 4_	.	4g/	.	4b\	.	.	.	.	4d\	De-	4g\	De-	4b\	De-	.	.	.
8d\	.	.	.	.	.	.	.	.	.	.	.	.	.	.	.	.	.	.
8d\	.	.	4g/	.	4b\	.	.	.	.	8d\	-i	8g\	-i	8b\	-i	.	.	.
8d\J	.	.	.	.	.	.	.	.	.	8d\	qui	8g\	qui	8b\	qui	.	.	.
=27	=27	=27	=27	=27	=27	=27	=27	=27	=27	=27	=27	=27	=27	=27	=27	=27	=27	=27
!	!	!	!	!	!	!	!	!	!	!	!	!LO:SIC:o:s:=:v:4e	!	!	!	!	!	!
8d\L	4 2	.	4e/	.	4cc#\	.	1ryy	.	.	4d\	tol-	4f#\	tol-	4cc#\	tol-	.	.	.
8d\	.	.	.	.	.	.	.	.	.	.	.	.	.	.	.	.	.	.
8d\	.	.	4e/	.	4cc#\	.	.	.	.	8d\	-lis	8e\	-lis	8cc#\	-lis	.	.	.
!	!	!	!	!	!	!	!	!	!	!LO:SIC:o:s:=:v:pec-	!	!LO:SIC:o:s:=:v:pec-	!	!LO:SIC:o:s:=:v:pec-	!	!	!	!
8d\J	.	.	.	.	.	.	.	.	.	8d\	pe-	8e\	pe-	8cc#\	pe-	.	.	.
4d\	5 3	.	16f#/LL	.	16dd\LL	.	.	.	.	8d\	-ca-	8f#\	-ca-	8dd\	-ca-	.	.	.
.	.	.	16e/	.	16cc#\	.	.	.	.	.	.	.	.	.	.	.	.	.
.	.	.	16f#/	.	16dd\	.	.	.	.	8d\	-ta	8f#\	-ta	8dd\	-ta	.	.	.
.	.	.	16g/JJ	.	16ee\JJ	.	.	.	.	.	.	.	.	.	.	.	.	.
4r	.	.	4f#/	.	4dd\	.	.	.	.	4r	.	4r	.	4r	.	.	.	.
*clefF4	*	*	*	*	*	*	*	*	*	*	*	*	*	*	*	*	*	*
=28	=28	=28	=28	=28	=28	=28	=28	=28	=28	=28	=28	=28	=28	=28	=28	=28	=28	=28
!LO:LB:g=original	!	!	!	!	!	!	!	!	!	!	!	!	!	!	!	!	!	!
*	*	*	*4\right	*	*	*	*	*	*	*	*ij	*2\right	*	*	*	*	*	*
8D\L	5 3	.	4ff#\	.	4aa\	.	1ryy	4D\	Ag-	4d\	Ag-	2f#\	Qui	2a\	Qui	4ff#\	.	4aa\
8D\	.	.	.	.	.	.	.	.	.	.	.	.	.	.	.	.	.	.
8D\	.	.	4ff#\	.	4aa\	.	.	4D\	-nus	4d\	-nus	.	.	.	.	4ff#\	.	4aa\
8D\J	.	.	.	.	.	.	.	.	.	.	.	.	.	.	.	.	.	.
8D\L	6 4	.	4gg\	.	4bb\	.	.	4D\	De-	4d\	De-	4g\	tol-	4b\	tol-	4gg\	.	4bb\
8D\	.	.	.	.	.	.	.	.	.	.	.	.	.	.	.	.	.	.
8D\	.	.	4gg\	.	4bb\	.	.	8D\	-i	8d\	-i	8g\	-lis	8b\	-lis	4gg\	.	4bb\
!	!	!	!	!	!	!	!	!	!	!	!	!LO:SIC:o:s:=:v:pec-	!	!LO:SIC:o:s:=:v:pec-	!	!	!	!
8D\J	.	.	.	.	.	.	.	8D\	qui	8d\	qui	8g\	pe-	8b\	pe-	.	.	.
=29	=29	=29	=29	=29	=29	=29	=29	=29	=29	=29	=29	=29	=29	=29	=29	=29	=29	=29
8D\L	7 2	.	4ee\	.	4ccc#\	.	1ryy	4D\	tol-	4d\	tol-	4.e\	-ca-	4cc#\	-ca-	4ee\	.	4ccc#\
8D\	.	.	.	.	.	.	.	.	.	.	.	.	.	.	.	.	.	.
8D\	.	.	4ee\	.	4ccc#\	.	.	8D\	-lis	8d\	-lis	.	.	4cc#\	-ta	4ee\	.	4ccc#\
8D\J	.	.	.	.	.	.	.	8D\	pec-	8d\	pe-	8e\	-ta	.	.	.	.	.
*Xtremolo	*	*	*	*	*	*	*	*	*	*	*	*	*	*	*	*	*	*
!	!	!	!	!	!	!	!	!	!	!LO:SIC:o:s:=:v:8d	!	!	!	!	!	!	!	!
!LO:SIC:o:s=:v:nieczytelne cyfrowanie	!	!	!	!	!	!	!	!	!	!LO:SIC:o:s:=:v:pec-	!	!	!	!	!	!	!	!
8D\L	8	.	16ff#\LL	.	16ddd\LL	.	.	8D\	-ca-	8c#\	-ca-	8f#\	mun-	8dd\	mun-	4ff#\	.	4ddd\
.	.	.	16ee\	.	16ccc#\	.	.	.	.	.	.	.	.	.	.	.	.	.
!	!	!	!	!	!	!	!	!	!	!LO:SIC:o:s:=:v:8d	!	!	!	!	!	!	!	!
8D\	.	.	16ff#\	.	16ddd\	.	.	8D\	-ta	8c#\	-ta	8f#\	-di	8dd\	-di	.	.	.
.	.	.	16gg\JJ	.	16eee\JJ	.	.	.	.	.	.	.	.	.	.	.	.	.
!	!	!	!LO:TX:t=P:problem=mixedbeam	!	!	!	!	!	!	!	!	!	!	!	!	!	!	!
8D\	.	.	8ff#\L	.	8ddd\L	.	.	8r	.	8r	.	8r	.	8r	.	8r	.	8r
*	*	*	*	*	*	*	*	*	*	*	*Xij	*	*	*	*	*	*	*
!	!	!	!	!	!	!	!	!	!	!	!	!LO:LB:g=original	!	!	!	!	!	!
!	!	!	!	!	!	!	!	!	!	!LO:SIC:o:s:=:v:pec-	!	!LO:SIC:o:s:=:v:pec-	!	!	!	!	!	!
8d\J	.	.	8a\J	.	8ff#\J	.	.	8d\	pec-	8d\	pe-	8a\	pe	8ff#\	qui	8dd\	.	8ff#\
=30	=30	=30	=30	=30	=30	=30	=30	=30	=30	=30	=30	=30	=30	=30	=30	=30	=30	=30
!	!	!	!	!	!	!	!	!	!	!LO:LB:g=original	!	!	!	!LO:LB:g=original	!	!	!	!
*	*	*	*tremolo	*	*	*	*	*	*	*	*	*	*	*	*	*	*	*
8A\L	.	.	8a/L	.	8ee\L	.	1ryy	8A\L	-ca-	8c#\L	-ca-	2a\	.	8ee\L	tol-	8a/L	.	8ee\L
8d\	.	.	8a/	.	8ff#\	.	.	8d\	.	8d\	.	.	.	8ff#\	.	8dd/	.	8ff#\
8A\	.	.	8a/	.	8ee\	.	.	8A\	.	8c#\	.	.	.	8ee\	.	8a/	.	8ee\
8d\J	.	.	8a/J	.	8ff#\J	.	.	8d\J	.	8d\J	.	.	.	8ff#\J	.	8dd/J	.	8ff#\J
!	!	!	!LO:SIC:o:s:=:v:2A	!	!	!	!	!	!	!	!	!	!	!	!	!	!	!
4A\	.	.	8b/L	.	4ee\	.	.	4A\	-ta	4c#\	-ta	4a\	.	4ee\	-lis	4a/	.	4ee\
.	.	.	8b/	.	.	.	.	.	.	.	.	.	.	.	.	.	.	.
8r	.	.	8b/	.	8r	.	.	8r	.	8r	.	8r	.	8r	.	4r	.	4r
!	!	!	!	!	!	!	!	!	!	!LO:SIC:o:s:=:v:pec-	!	!	!	!	!	!	!	!
*	*	*	*	*	*	*	*	*	*	*	*ij	*	*	*	*	*	*	*
8D\	n	.	8b/J	.	8dd\	.	.	8D\	pec-	8A\	pe-	8fn\	.	8dd\	pe-	.	.	.
*	*	*	*Xtremolo	*	*	*	*	*	*	*	*	*	*	*	*	*	*	*
=31	=31	=31	=31	=31	=31	=31	=31	=31	=31	=31	=31	=31	=31	=31	=31	=31	=31	=31
!	!	!	!LO:LB:g=original	!	!LO:LB:g=original	!	!	!LO:LB:g=original	!	!	!	!	!	!	!	!	!	!
!	!	!	!	!	!	!	!	!LO:SIC:o:s:=:v:8A	!	!	!	!	!	!	!	!LO:TX:a:t=5	!	!LO:TX:a:t=5
8A\L	#	.	8e/L	.	8cc#\L	.	1ryy	8G\	-ca-	8A\	-ca-	(8e\	.	8cc#\	-ca-	00r	.	00r
!	!	!	!	!	!	!	!	!	!	!	!	!LO:SIC:o:s:=:v:8fn	!	!	!	!	!	!
8G#X\	n7 5	.	8fn/J	.	8dd\	.	.	8G#X\	-ta	8B\	-ta	8f#\)	.	8dd\	-ta	.	.	.
*	*	*	*	*	*	*	*	*	*	*	*Xij	*	*	*	*	*	*	*
8A\	#	.	8f/L	.	8cc#\	.	.	8A\L	mun-	8A\L	mun-	8e\L	.	8cc#\L	mun-	.	.	.
!	!	!	!	!	!	!	!	!	!	!	!	!LO:SIC:o:s:=:v:8fn	!	!	!	!	!	!
8G#\J	n9 5	.	8f/J	.	8dd\J	.	.	8G#\J	.	8B\J	.	8f#\J	.	8dd\J	.	.	.	.
4A\	.	.	4e/	.	4cc#\	.	.	4A\	-di	4A\	-di	4e\	.	4cc#\	-di	.	.	.
4r	.	.	4r	.	4r	.	.	4r	.	4r	.	4r	.	4r	.	.	.	.
=32	=32	=32	=32	=32	=32	=32	=32	=32	=32	=32	=32	=32	=32	=32	=32	=32	=32	=32
!LO:TX:a:t=2	!	!	!	!	!	!	!	!	!	!LO:TX:a:t=2	!	!LO:TX:a:t=2	!	!	!	!	!	!
0r	.	.	8r	.	8r	.	1ryy	0r	.	0r	.	0r	.	4.dd\	Mi-	.	.	.
.	.	.	8d/L	.	8d/L	.	.	.	.	.	.	.	.	.	.	.	.	.
.	.	.	8f#X/	.	8f#/	.	.	.	.	.	.	.	.	.	.	.	.	.
.	.	.	8d/J	.	8d/J	.	.	.	.	.	.	.	.	8ccn\	-ſe-	.	.	.
.	.	.	8r	.	8r	.	.	.	.	.	.	.	.	4b\	-re-	.	.	.
.	.	.	8g/L	.	8g/L	.	.	.	.	.	.	.	.	.	.	.	.	.
.	.	.	8b/	.	8b/	.	.	.	.	.	.	.	.	4b\	-re	.	.	.
.	.	.	8g/J	.	8g/J	.	.	.	.	.	.	.	.	.	.	.	.	.
=33	=33	=33	=33	=33	=33	=33	=33	=33	=33	=33	=33	=33	=33	=33	=33	=33	=33	=33
*	*	*	*	*	*	*	*	*	*	*	*	*	*	*	*ij	*	*	*
.	.	.	8r	.	8r	.	1ryy	.	.	.	.	.	.	4.ee\	Mi-	.	.	.
.	.	.	8e/L	.	8e/L	.	.	.	.	.	.	.	.	.	.	.	.	.
.	.	.	8g#X/	.	8g#X/	.	.	.	.	.	.	.	.	.	.	.	.	.
.	.	.	8e/J	.	8e/J	.	.	.	.	.	.	.	.	8dd\	-ſe-	.	.	.
.	.	.	8r	.	8r	.	.	.	.	.	.	.	.	4cc#\	-re-	.	.	.
.	.	.	8a/L	.	8a/L	.	.	.	.	.	.	.	.	.	.	.	.	.
.	.	.	8cc#/	.	8cc#/	.	.	.	.	.	.	.	.	4cc#\	-re	.	.	.
.	.	.	8a/J	.	8a/J	.	.	.	.	.	.	.	.	.	.	.	.	.
=34	=34	=34	=34	=34	=34	=34	=34	=34	=34	=34	=34	=34	=34	=34	=34	=34	=34	=34
!LO:SIC:o:s=:v:zbędne tt. 34-35 w clno I i clno II	!	!	!LO:SIC:o:s=:v:zbędne tt. 34-35 w clno I i clno II	!	!LO:SIC:o:s=:v:zbędne tt. 34-35 w clno I i clno II	!	!	!LO:SIC:o:s=:v:zbędne tt. 34-35 w clno I i clno II	!	!LO:SIC:o:s=:v:zbędne tt. 34-35 w clno I i clno II	!	!LO:SIC:o:s=:v:zbędne tt. 34-35 w clno I i clno II	!	!LO:SIC:o:s=:v:zbędne tt. 34-35 w clno I i clno II	!	!LO:SIC:o:s=:v:nadmiarowe tt. 34-35	!	!LO:SIC:o:s=:v:nadmiarowe tt. 34-35
1ryy	.	.	1ryy	.	1ryy	.	1ryy	1ryy	.	1ryy	.	1ryy	.	1ryy	.	.	.	.
=35	=35	=35	=35	=35	=35	=35	=35	=35	=35	=35	=35	=35	=35	=35	=35	=35	=35	=35
1ryy	.	.	1ryy	.	1ryy	.	1ryy	1ryy	.	1ryy	.	1ryy	.	1ryy	.	1r	.	1r
=36	=36	=36	=36	=36	=36	=36	=36	=36	=36	=36	=36	=36	=36	=36	=36	=36	=36	=36
*	*	*	*tremolo	*	*	*	*	*	*	*	*	*	*	*	*	*	*	*
8C#\L	6	.	8a/L	.	4a\	.	1ryy	8C#\L	Mi-	4c#\	mi-	4a\	mi-	4a\	Mi-	4a/	.	4ee\
8A\	.	.	8a/	.	.	.	.	8A\J	.	.	.	.	.	.	.	.	.	.
8C#\	.	.	8a/	.	4gg\	.	.	8C#\L	-se-	4e\	-ſe-	4a\	-se-	4gg\	-ſe-	4r	.	4r
8A\J	.	.	8a/J	.	.	.	.	8A\J	.	.	.	.	.	.	.	.	.	.
8D\L	.	.	8a/L	.	4ff#\	.	.	8D\L	-re-	4d\	-re	4a\	-re-	4ff#\	-re-	4ee\	.	4ff#\
8A\	.	.	8a/	.	.	.	.	8A\J	.	.	.	.	.	.	.	.	.	.
!	!	!	!	!	!	!	!	!	!	!LO:SIC:t:o:s=:v:brakuje -re	!	!	!	!	!	!	!	!
8D\	.	.	8a/	.	4dd\	.	.	8D\L	-re	4A\	.	4f#\	-re	4dd\	-re	4r	.	4r
8A\J	.	.	8a/J	.	.	.	.	8A\J	.	.	.	.	.	.	.	.	.	.
*	*	*	*	*	*	*	*	*	*	*	*	*	*	*	*Xij	*	*	*
=37	=37	=37	=37	=37	=37	=37	=37	=37	=37	=37	=37	=37	=37	=37	=37	=37	=37	=37
!	!	!	!	!	!	!	!	!	!	!	!	!	!	!	!	!LO:LB:g=original	!	!
*	*	*	*	*	*	*	*	*	*	*2\right	*	*	*	*	*	*	*	*
8E\L	6	.	8a/L	.	4.cc#\	.	1ryy	8E\L	no-	2A\	no-	2g\	no-	4.cc#\	no-	4a/	.	4ee\
8A\	.	.	8a/	.	.	.	.	8A\	.	.	.	.	.	.	.	.	.	.
8E\	.	.	8a/	.	.	.	.	8E\	.	.	.	.	.	.	.	4r	.	4r
8A\J	.	.	8a/J	.	16dd\LL	.	.	8A\J	.	.	.	.	.	16dd\LL	.	.	.	.
.	.	.	.	.	16ee\JJ	.	.	.	.	.	.	.	.	16ee\JJ	.	.	.	.
!	!	!	!	!	!	!	!	!	!	!	!	!	!	!LO:LB:g=original	!	!	!	!
8F#\L	6	.	8a/L	.	4dd\	.	.	4F#\	-bis	4A\	-bis	4f#\	-bis	4dd\	-bis	4dd\	.	4ff#\
8A\	.	.	8a/	.	.	.	.	.	.	.	.	.	.	.	.	.	.	.
8F#\	.	.	8a/	.	4r	.	.	4r	.	4r	.	4r	.	4r	.	4r	.	4r
8A\J	.	.	8a/J	.	.	.	.	.	.	.	.	.	.	.	.	.	.	.
=38	=38	=38	=38	=38	=38	=38	=38	=38	=38	=38	=38	=38	=38	=38	=38	=38	=38	=38
!LO:LB:g=original	!	!	!	!	!	!	!	!	!	!	!	!	!	!	!	!	!	!LO:LB:g=original
8C#\L	6	.	8a/L	.	4a\	.	1ryy	8C#\L	Mi-	4c#\	mi-	4a\	mi-	4a\	mi-	1r	.	1r
8A\	.	.	8a/	.	.	.	.	8A\J	.	.	.	.	.	.	.	.	.	.
8C#\	.	.	8a/	.	4gg\	.	.	8C#\L	-se-	4e\	-ſe-	4a\	-ſe-	4gg\	-ſe-	.	.	.
8A\J	.	.	8a/J	.	.	.	.	8A\J	.	.	.	.	.	.	.	.	.	.
8D\L	.	.	8a/L	.	4ff#\	.	.	8D\L	-re-	4d\	-re-	4a\	-re-	4ff#\	-re-	.	.	.
8A\	.	.	8a/	.	.	.	.	8A\J	.	.	.	.	.	.	.	.	.	.
8D\	.	.	8a/	.	4dd\	.	.	8D\L	-re	4A\	-re	4f#\	-re	4dd\	-re	.	.	.
8A\J	.	.	8a/J	.	.	.	.	8A\J	.	.	.	.	.	.	.	.	.	.
=39	=39	=39	=39	=39	=39	=39	=39	=39	=39	=39	=39	=39	=39	=39	=39	=39	=39	=39
!	!	!	!LO:LB:g=original	!	!	!	!	!LO:LB:g=original	!	!	!	!LO:LB:g=original	!	!	!	!	!	!
8E\L	6	.	8a/L	.	4.cc#\	.	1ryy	8E\L	no-	2A\	no-	2g\	no-	4.cc#\	no-	2r	.	2r
8A\	.	.	8a/	.	.	.	.	8A\	.	.	.	.	.	.	.	.	.	.
8E\	.	.	8a/	.	.	.	.	8E\	.	.	.	.	.	.	.	.	.	.
8A\J	.	.	8a/J	.	16dd\LL	.	.	8A\J	.	.	.	.	.	16dd\LL	.	.	.	.
.	.	.	.	.	16ee\JJ	.	.	.	.	.	.	.	.	16ee\JJ	.	.	.	.
4F#\	6	.	8b/L	.	4dd\	.	.	4F#\	-bis	4A\	-bis	4f#\	-bis	4dd\	-bis	4r	.	4r
.	.	.	8b/	.	.	.	.	.	.	.	.	.	.	.	.	.	.	.
8A\L	.	.	8b/	.	8ee\L	.	.	8A\	mi-	8d\	mi-	8a\	mi-	8ee\	mi-	4a/	.	4ee\
8A\J	.	.	8b/J	.	8ee\J	.	.	8A\	-se-	8d\	-ſe-	8a\	-ſe-	8ee\	-ſe-	.	.	.
=40	=40	=40	=40	=40	=40	=40	=40	=40	=40	=40	=40	=40	=40	=40	=40	=40	=40	=40
!	!	!	!	!	!LO:LB:g=original	!	!	!	!	!LO:LB:g=original	!	!	!	!	!	!	!	!
8d\L	.	.	8b/L	.	8ff#\L	.	1ryy	8d\L	-re-	8d\L	-re-	1a	-re-	8ff#\L	-re-	8dd\L	.	8ff#\L
8A\	.	.	8b/	.	8ee\	.	.	8A\	.	8c#\	.	.	.	8ee\	.	8a\	.	8ee\
8d\	.	.	8b/	.	8ff#\	.	.	8d\	.	8d\	.	.	.	8ff#\	.	8dd\	.	8ff#\
8A\J	.	.	8b/J	.	8ee\J	.	.	8A\J	.	8c#\J	.	.	.	8ee\J	.	8a\J	.	8ee\J
8d\L	.	.	8b/L	.	8ff#\L	.	.	8d\L	.	8d\L	.	.	.	8ff#\L	.	8dd\L	.	8ff#\L
8A\	.	.	8b/	.	8ee\	.	.	8A\	.	8c#\	.	.	.	8ee\	.	8a\	.	8ee\
8d\	.	.	8b/	.	8ff#\	.	.	8d\	.	8d\	.	.	.	8ff#\	.	8dd\	.	8ff#\
8A\J	.	.	8b/J	.	8ee\J	.	.	8A\J	.	8c#\J	.	.	.	8ee\J	.	8a\J	.	8ee\J
*	*	*	*Xtremolo	*	*	*	*	*	*	*	*	*	*	*	*	*	*	*
=41	=41	=41	=41	=41	=41	=41	=41	=41	=41	=41	=41	=41	=41	=41	=41	=41	=41	=41
!LO:TX:t=P:problem=mixedbeam	!	!	!	!	!	!	!	!	!	!	!	!	!	!	!	!	!	!
8d\L	.	.	8a/L	.	8ff#\L	.	1ryy	8d\	.	8d\	.	8a\L	-re	8ff#\	.	8dd\L	.	8ff#\L
8G\	6 5	.	16b/L	.	16gg\L	.	.	8G\	-re	8B\	-re	8g\J	.	8ee\	-re	8ee\	.	8gg\
.	.	.	16g/JJ	.	16ee\JJ	.	.	.	.	.	.	.	.	.	.	.	.	.
!	!	!	!	!	!	!	!	!LO:TX:t=P:problem=mixedbeam	!	!	!	!	!	!	!	!	!	!
8A\	4	.	8f#/L	.	8dd\L	.	.	8A\L	no-	4A\	no-	8f#\L	no-	8dd\L	no-	8dd\	.	8ff#\
8AA/J	3	.	8e/J	.	8cc#\J	.	.	8AA/J	.	.	.	8e\J	.	8cc#\J	.	8a\J	.	8ee\J
4D\	.	.	4f#/	.	4dd\	.	.	4D\	-bis	4A\	-bis	4f#\	-bis	4dd\	-bis	4f#/	.	4dd\
4r	.	.	8aa\L	.	8cccn\L	.	.	4r	.	4r	.	8a\	mi-	8ccn\	mi-	4r	.	4r
.	.	.	8aa\J	.	8ccc\J	.	.	.	.	.	.	8a\	-ſe-	8cc\	-ſe-	.	.	.
=42	=42	=42	=42	=42	=42	=42	=42	=42	=42	=42	=42	=42	=42	=42	=42	=42	=42	=42
!	!	!	!	!	!	!	!	!	!	!	!	!	!	!LO:LB:g=original	!	!	!	!
4D\|	.	.	8gg\L	.	8bb\L	.	1ryy	4D\	Mi-	4d\	mi-	8g\L	-re-	8b\L	-re-	4d/	.	4dd\
.	.	.	16ff#\L	.	16aa\L	.	.	.	.	.	.	16f#\L	.	16a\L	.	.	.	.
.	.	.	16gg\JJ	.	16bb\JJ	.	.	.	.	.	.	16g\JJ	.	16b\JJ	.	.	.	.
!	!	!	!	!	!LO:SIC:o:s:=:v:cccn	!	!	!	!	!	!	!	!	!	!	!	!	!
4r	.	.	4aa\	.	4ccc#\	.	.	4D\	-se-	4d\	-ſe-	4a\	.	4ccn\	-re	4r	.	4r
4D\|	.	.	8gg\L	.	8bb\L	.	.	4D\	-re-	4d\	-re-	8g\L	.	8b\L	no-	4d/	.	4dd\
.	.	.	16ff#\L	.	16aa\L	.	.	.	.	.	.	16f#\L	.	16a\L	.	.	.	.
.	.	.	16gg\JJ	.	16bb\JJ	.	.	.	.	.	.	16g\JJ	.	16b\JJ	.	.	.	.
!	!	!	!	!	!LO:SIC:o:s:=:v:cccn	!	!	!	!	!	!	!	!	!	!	!	!	!
4r	.	.	4aa\	.	4ccc#\	.	.	4D\	-re	4d\	-re	4a\	-re	4cc\	-bis	4r	.	4r
=43	=43	=43	=43	=43	=43	=43	=43	=43	=43	=43	=43	=43	=43	=43	=43	=43	=43	=43
!LO:LB:g=original	!	!	!	!	!	!	!	!LO:LB:g=original	!	!	!	!	!	!	!	!	!	!
*	*	*	*	*	*	*	*	*2\right	*	*	*	*	*	*2\right	*	*	*	*
8r	.	.	8r	.	8r	.	1ryy	2G\	no-	2d\	no-	1g	no-	(2b\	no-	4d/	.	4dd\
8G\L	5 3	.	8dd\L	.	8bb\L	.	.	.	.	.	.	.	.	.	.	.	.	.
8G\	.	.	8dd\	.	8bb\	.	.	.	.	.	.	.	.	.	.	4r	.	4r
8G\J	.	.	8dd\J	.	8bb\J	.	.	.	.	.	.	.	.	.	.	.	.	.
8r	.	.	8r	.	8r	.	.	2A\	.	2e\	-bis	.	.	2cc#\)	.	4a/	.	4ee\
8A\L	.	.	8ee\L	.	8ccc#X\L	.	.	.	.	.	.	.	.	.	.	.	.	.
8A\	#	.	8ee\	.	8ccc#\	.	.	.	.	.	.	.	.	.	.	4r	.	4r
8A\J	.	.	8ee\J	.	8ccc#\J	.	.	.	.	.	.	.	.	.	.	.	.	.
=44	=44	=44	=44	=44	=44	=44	=44	=44	=44	=44	=44	=44	=44	=44	=44	=44	=44	=44
!	!	!	!	!	!	!	!	!	!	!	!	!LO:LB:g=original	!	!	!	!	!	!
*	*	*	*	*	*	*	*	*	*	*	*ij	*	*	*	*	*	*	*
4D/	.	.	4ff#\	.	4ddd\	.	1ryy	4D\	-bis	2A\	no-	4f#\	.	4dd\	.	4dd\	.	4ff#\
4AA/	.	.	4a\ 4ee	.	4a/ 4ee	.	.	4AA/	no-	.	.	4e\	.	4cc#\	.	4a/	.	4ee\
4D/	.	.	4d\ 4a 4ff#	.	4d/ 4a 4ff#	.	.	4D/	-bis	4A\	-bis	4f#\	-bis	4dd\	-bis	4dd\	.	4ff#\
4r	.	.	4r	.	4r	.	.	4r	.	4r	.	4r	.	4r	.	4r	.	4r
*	*	*	*	*	*	*	*	*	*	*	*Xij	*	*	*	*	*	*	*
=45	=45	=45	=45	=45	=45	=45	=45	=45	=45	=45	=45	=45	=45	=45	=45	=45	=45	=45
!	!	!	!LO:LB:g=original	!	!	!	!	!	!	!	!	!	!	!	!	!LO:LB:g=original	!	!
!	!	!	!LO:TX:b:t=Fine	!	!	!	!	!	!	!	!	!	!	!	!	!	!	!
!LO:TX:b:B:t=Adagio	!	!	!LO:TX:b:t=1	!	!LO:TX:b:t=Finis	!	!	!	!	!	!	!	!	!	!	!	!	!
!LO:TX:a:t=pedale	!	!	!LO:TX:a:t=Adagio.	!	!LO:TX:a:t=adagio	!	!	!LO:TX:a:B:t=Adagio	!	!LO:TX:a:t=Adagio	!	!LO:TX:a:t=adagio	!	!LO:TX:a:t=adagio	!	!LO:TX:a:t=Adagio	!	!LO:TX:a:B:t=ada
2GG/	.	.	1r	.	1r	.	1ryy	2G\	no-	2d\	no-	2g\	no-	2b\	no-	1r	.	1r
2DD/	.	.	.	.	.	.	.	2D\	-bis	2d\	-bis	2f#\	-bis.	2a\	-bis	.	.	.
==	==	==	==	==	==	==	==	==;	==	==;;	==	==;;	==	==;;	==	==	==	==
*-	*-	*-	*-	*-	*-	*-	*-	*-	*-	*-	*-	*-	*-	*-	*-	*-	*-	*-
!!!system-decoration: [(s1,s2)][(s3,s4,s5,s6)][(s7,s8,s9,s10)]
!!!RDF**kern: > = above
!!!RDF**kern: < = below
!!!RDF**dynam: f = for
!!!RDF**dynam: p = po.
!!!RDF**kern: | = vertical stroke
!!!EED: Leszek Kubiak
!!!EEV: 2020-06-24
!!!ENC: Andrzej Kubiczek
!!!END: 2020-06-21
